public/assets/faq/icon.svg

<svg xmlns="http://www.w3.org/2000/svg" width="13" height="12" fill="none" viewBox="0 0 13 12"><path fill="#000" d="M3.44792 10.7657L2.01032 9.32815L9.80211 1.47886L11.2325 2.91646L3.44792 10.7657ZM9.80211 10.7657L2.01032 2.91646L3.44792 1.47886L11.2325 9.32815L9.80211 10.7657ZM0.802734 6.07917C0.807526 5.73415 0.922534 5.44663 1.14776 5.21662C1.37298 4.98181 1.69644 4.8644 2.11814 4.8644C2.54463 4.8644 2.87288 4.98181 3.10289 5.21662C3.33291 5.44663 3.44792 5.73415 3.44792 6.07917C3.44792 6.41941 3.33291 6.70213 3.10289 6.92736C2.87288 7.15258 2.54463 7.26519 2.11814 7.26519C1.69644 7.26519 1.37298 7.15258 1.14776 6.92736C0.922534 6.70213 0.807526 6.41941 0.802734 6.07917ZM5.25929 10.5861C5.25929 10.2458 5.37191 9.96069 5.59713 9.73068C5.82235 9.49587 6.14342 9.37847 6.56032 9.37847C6.97723 9.37847 7.30308 9.49587 7.53789 9.73068C7.7727 9.96069 7.8901 10.2458 7.8901 10.5861C7.8901 10.9167 7.7727 11.1994 7.53789 11.4342C7.30308 11.6642 6.97723 11.7793 6.56032 11.7793C6.14342 11.7793 5.82235 11.6642 5.59713 11.4342C5.37191 11.1994 5.25929 10.9167 5.25929 10.5861ZM5.25929 1.67293C5.25929 1.3327 5.37191 1.04758 5.59713 0.81756C5.82235 0.582752 6.14342 0.465347 6.56032 0.465347C6.97723 0.465347 7.30308 0.582752 7.53789 0.81756C7.7727 1.04758 7.8901 1.3327 7.8901 1.67293C7.8901 2.00358 7.7727 2.28631 7.53789 2.52111C7.30308 2.75113 6.97723 2.86614 6.56032 2.86614C6.14342 2.86614 5.82235 2.75113 5.59713 2.52111C5.37191 2.28631 5.25929 2.00358 5.25929 1.67293ZM9.67273 6.07917C9.67273 5.73415 9.79013 5.44663 10.0249 5.21662C10.2597 4.98181 10.588 4.8644 11.0097 4.8644C11.4266 4.8644 11.7525 4.98181 11.9873 5.21662C12.2221 5.44663 12.3371 5.73415 12.3323 6.07917C12.3371 6.41941 12.2221 6.70213 11.9873 6.92736C11.7525 7.15258 11.4266 7.26519 11.0097 7.26519C10.588 7.26519 10.2597 7.15258 10.0249 6.92736C9.79013 6.70213 9.67273 6.41941 9.67273 6.07917Z"/></svg>

<svg fill="none" viewBox="0 0 13 12"><path fill="#000" d="M3.448 10.766L2.01 9.328l7.792-7.85 1.43 1.438-7.784 7.85zm6.354 0L2.01 2.916 3.448 1.48l7.784 7.85-1.43 1.437zm-9-4.687a1.21 1.21 0 01.346-.862c.225-.235.548-.353.97-.353.427 0 .755.118.985.353.23.23.345.517.345.862 0 .34-.115.623-.345.848-.23.226-.558.338-.985.338-.422 0-.745-.112-.97-.338a1.175 1.175 0 01-.345-.848zm4.457 4.507c0-.34.113-.625.338-.855.225-.235.546-.353.963-.353.417 0 .743.118.978.353.235.23.352.515.352.855 0 .33-.117.613-.352.848-.235.23-.56.345-.978.345-.417 0-.738-.115-.963-.345a1.181 1.181 0 01-.338-.848zm0-8.913c0-.34.113-.625.338-.855.225-.235.546-.353.963-.353.417 0 .743.118.978.353.235.23.352.515.352.855 0 .33-.117.613-.352.848-.235.23-.56.345-.978.345-.417 0-.738-.115-.963-.345a1.181 1.181 0 01-.338-.848zm4.414 4.406c0-.345.117-.632.352-.862.235-.235.563-.353.985-.353.417 0 .742.118.977.353.235.23.35.517.345.862.005.34-.11.623-.345.848-.235.226-.56.338-.977.338-.422 0-.75-.112-.985-.338a1.126 1.126 0 01-.352-.848z"/></svg>
